X: 26408
T: Merry Maids Polka, The
R: barndance
M: 4/4
K: Gmajor
D2 G>B d>BG>B|A2E2 A3G|F2e2 d2c2|c2B2 B3D|
D2 G>B d>B G2|E2 A>c e>c A2|F2 e>d c2 B>A|G2G2 G4:|
K:D
A>de>f e2d2|A4A4|A>de>f e2d2|d2c2 c4|
e>fg>f e2g2|d>ef>e d2f2|e2 ^g>f e>dc>B|A2 a2 a4|
A>de>f e2d2|A4A4|B>ef>g f2e2|B4B4|
c>d e2 e2c2|d>e f2 f2d2|A>aB>a c>ae>c|d4d4||
K:G
D2 G>B d>BG>B|A2E2 A3G|F2e2 d2c2|c2B2 B3D|
D2 G>B d>B G2|E2 A>c e>c A2|F2 e>d c2 B>A|G2G2 G4:|
K:C
G2c2 c2c2|c>Bc>d e>dc>B|A2d2 d2d2|d4d2c2|
B2f2 f2f2|f>ef>g a>gf>e|d2c2 B2A2|G4 B>AB>A|
G2c2 c2c2|c>Bc>d e>dc>B|A2d2 d2d2|d4d2c2|
B2d2 f2a2|g2e2 d2c2|B2 G>A B2 e>d|1 c2 G>G G2G2:|2 c4 d2z2||
K:G
D2 G>B d>BG>B|A2E2 A3G|F2e2 d2c2|c2B2 B3D|
D2 G>B d>B G2|E2 A>c e>c A2|F2 e>d c2 B>A|G2G2 G4:|

